svgs/thin/paperclip-vertical.svg

<svg xmlns="http://www.w3.org/2000/svg" viewBox="0 0 384 512"><!--! Font Awesome Pro 6.4.2 by @fontawesome - https://fontawesome.com License - https://fontawesome.com/license (Commercial License) Copyright 2023 Fonticons, Inc. --><path d="M80 88c0-48.6 39.4-88 88-88s88 39.4 88 88V352c0 35.3-28.7 64-64 64s-64-28.7-64-64V136c0-4.4 3.6-8 8-8s8 3.6 8 8V352c0 26.5 21.5 48 48 48s48-21.5 48-48V88c0-39.8-32.2-72-72-72s-72 32.2-72 72V400c0 53 43 96 96 96s96-43 96-96V136c0-4.4 3.6-8 8-8s8 3.6 8 8V400c0 61.9-50.1 112-112 112s-112-50.1-112-112V88z"/></svg>

<svg xmlns="http://www.w3.org/2000/svg" viewBox="0 0 384 512"><!--! Font Awesome Pro 6.1.1 by @fontawesome - https://fontawesome.com License - https://fontawesome.com/license (Commercial License) Copyright 2022 Fonticons, Inc. --><path d="M80 88C80 39.4 119.4 0 168 0C216.6 0 256 39.4 256 88V352C256 387.3 227.3 416 192 416C156.7 416 128 387.3 128 352V136C128 131.6 131.6 128 136 128C140.4 128 144 131.6 144 136V352C144 378.5 165.5 400 192 400C218.5 400 240 378.5 240 352V88C240 48.24 207.8 16 168 16C128.2 16 96 48.24 96 88V400C96 453 138.1 496 192 496C245 496 288 453 288 400V136C288 131.6 291.6 128 296 128C300.4 128 304 131.6 304 136V400C304 461.9 253.9 512 192 512C130.1 512 80 461.9 80 400V88z"/></svg>
